Yaru++/apps/scalable/teams.svg

<svg enable-background="new" height="256" viewBox="0 0 256 256" width="256" xmlns="http://www.w3.org/2000/svg" xmlns:xlink="http://www.w3.org/1999/xlink"><filter id="a" color-interpolation-filters="sRGB" height="1.096001" width="1.095999" x="-.047999" y="-.048001"><feGaussianBlur stdDeviation="4.4800539"/></filter><filter id="b" color-interpolation-filters="sRGB" height="1.024" width="1.024" x="-.012" y="-.012"><feGaussianBlur stdDeviation="1.1200135"/></filter><path d="m200.83049 16.247859c35.29673 0 39.09461 3.62542 38.92162 38.99353v73.006471 73.00648c.17299 35.36812-3.62489 38.99353-38.92162 38.99353h-146.15675c-35.29671 0-38.92161-3.625-38.92161-38.99353v-73.00648-73.006471c0-35.36853 3.6249-38.99353 38.92161-38.99353z" filter="url(#b)" opacity=".1"/><path d="m200.83049 16.247859c35.29673 0 39.09461 3.62542 38.92162 38.99353v73.006471 73.00648c.17299 35.36812-3.62489 38.99353-38.92162 38.99353h-146.15675c-35.29671 0-38.92161-3.625-38.92161-38.99353v-73.00648-73.006471c0-35.36853 3.6249-38.99353 38.92161-38.99353z" filter="url(#a)" opacity=".2"/><path d="m54.67915 239.24757c-35.29673 0-39.09461-3.62542-38.92162-38.99353v-73.00647-73.006477c-.17299-35.36812 3.62489-38.99353 38.92162-38.99353h146.15675c35.29671 0 38.92161 3.625 38.92161 38.99353v73.006477 73.00647c0 35.36853-3.6249 38.99353-38.92161 38.99353z" fill="#474fb7"/><path d="m54.67941 15.247567c-35.29673 0-39.09487 3.62603-38.92188 38.99414v2c-.17299-35.36811 3.62515-38.99414 38.92188-38.99414h146.15623c35.29673 0 38.92188 3.62561 38.92188 38.99414v-2c0-35.36853-3.62515-38.99414-38.92188-38.99414z" fill="#fff" opacity=".3"/><path d="m54.68481 239.24757c-35.29674 0-39.09488-3.62603-38.92189-38.99414v-2c-.17299 35.36811 3.62515 38.99414 38.92189 38.99414h146.15623c35.29673 0 38.92188-3.62561 38.92188-38.99414v2c0 35.36853-3.62515 38.99414-38.92188 38.99414z" opacity=".2"/><path d="m176.87193 86.296166h-37.31653v101.614704h-23.77439v-101.614704h-37.143295v-19.7119h98.234215z" fill="#fff" stroke-width=".196434"/></svg>

<?xml version="1.0" encoding="UTF-8" standalone="no"?>
<svg
   xmlns:dc="http://purl.org/dc/elements/1.1/"
   xmlns:cc="http://creativecommons.org/ns#"
   xmlns:rdf="http://www.w3.org/1999/02/22-rdf-syntax-ns#"
   xmlns:svg="http://www.w3.org/2000/svg"
   xmlns="http://www.w3.org/2000/svg"
   xmlns:sodipodi="http://sodipodi.sourceforge.net/DTD/sodipodi-0.dtd"
   xmlns:inkscape="http://www.inkscape.org/namespaces/inkscape"
   enable-background="new"
   height="256"
   viewBox="0 0 256 256"
   width="256"
   version="1.1"
   id="svg59"
   sodipodi:docname="tweaks-app.svg"
   inkscape:version="0.92.5 (2060ec1f9f, 2020-04-08)">
  <metadata
     id="metadata65">
    <rdf:RDF>
      <cc:Work
         rdf:about="">
        <dc:format>image/svg+xml</dc:format>
        <dc:type
           rdf:resource="http://purl.org/dc/dcmitype/StillImage" />
      </cc:Work>
    </rdf:RDF>
  </metadata>
  <defs
     id="defs63">
    <linearGradient
       id="linearGradient3797-5">
      <stop
         id="stop3801"
         offset="0"
         style="stop-color:#f7f7f7;stop-opacity:1" />
      <stop
         id="stop3799"
         offset="1"
         style="stop-color:#e6e6e6;stop-opacity:1" />
    </linearGradient>
    <filter
       inkscape:collect="always"
       style="color-interpolation-filters:sRGB"
       id="filter58449"
       x="-0.047999427"
       width="1.0959988"
       y="-0.048000574"
       height="1.0960011">
      <feGaussianBlur
         inkscape:collect="always"
         stdDeviation="4.4800539"
         id="feGaussianBlur58451" />
    </filter>
    <filter
       inkscape:collect="always"
       style="color-interpolation-filters:sRGB"
       id="filter58492"
       x="-0.011999856"
       width="1.0239997"
       y="-0.012000144"
       height="1.0240003">
      <feGaussianBlur
         inkscape:collect="always"
         stdDeviation="1.1200135"
         id="feGaussianBlur58494" />
    </filter>
    <linearGradient
       id="SVGID_1_"
       gradientUnits="userSpaceOnUse"
       x1="198.099"
       y1="1683.0726"
       x2="942.23438"
       y2="394.26071"
       gradientTransform="matrix(0.19643385,0,0,-0.19643385,-274.13275,307.72287)">
      <stop
         offset="0"
         style="stop-color:#5A62C3"
         id="stop1044" />
      <stop
         offset="0.5"
         style="stop-color:#4D55BD"
         id="stop1046" />
      <stop
         offset="1"
         style="stop-color:#3940AB"
         id="stop1048" />
    </linearGradient>
  </defs>
  <sodipodi:namedview
     pagecolor="#ffffff"
     bordercolor="#666666"
     borderopacity="1"
     objecttolerance="10"
     gridtolerance="10"
     guidetolerance="10"
     inkscape:pageopacity="0"
     inkscape:pageshadow="2"
     inkscape:window-width="1920"
     inkscape:window-height="1016"
     id="namedview61"
     showgrid="false"
     inkscape:zoom="3.296875"
     inkscape:cx="128"
     inkscape:cy="128"
     inkscape:window-x="0"
     inkscape:window-y="27"
     inkscape:window-maximized="1"
     inkscape:current-layer="svg59" />
  <linearGradient
     id="a"
     gradientTransform="matrix(0 -1 1 0 -26.11888 279.17176)"
     gradientUnits="userSpaceOnUse"
     x1="39.997"
     x2="263.997"
     y1="156"
     y2="156">
    <stop
       offset="0"
       stop-color="#f7f7f7"
       id="stop2" />
    <stop
       offset="1"
       stop-color="#e6e6e6"
       id="stop4" />
  </linearGradient>
  <linearGradient
     id="b"
     gradientUnits="userSpaceOnUse"
     x1="88"
     x2="488"
     y1="88"
     y2="488">
    <stop
       offset="0"
       stop-opacity=".588235"
       id="stop7" />
    <stop
       offset="1"
       stop-opacity=".205556"
       id="stop9" />
  </linearGradient>
  <filter
     id="c"
     color-interpolation-filters="sRGB"
     height="1.088"
     width="1.106"
     x="-.05"
     y="-.04">
    <feGaussianBlur
       stdDeviation="8.48"
       id="feGaussianBlur12" />
  </filter>
  <filter
     id="d"
     color-interpolation-filters="sRGB"
     height="1.022"
     width="1.026"
     x="-.01"
     y="-.01">
    <feGaussianBlur
       stdDeviation="2.12"
       id="feGaussianBlur15" />
  </filter>
  <filter
     id="e"
     color-interpolation-filters="sRGB"
     height="1.12"
     width="1.12"
     x="-.06"
     y="-.06">
    <feGaussianBlur
       stdDeviation=".46537967"
       id="feGaussianBlur18" />
  </filter>
  <path
     style="color:#000000;display:inline;overflow:visible;visibility:visible;opacity:0.1;fill:#000000;fill-opacity:1;fill-rule:nonzero;stroke:none;stroke-width:1;marker:none;filter:url(#filter58492);enable-background:accumulate"
     d="m 200.83049,16.247859 c 35.29673,0 39.09461,3.62542 38.92162,38.99353 v 73.006471 73.00648 c 0.17299,35.36812 -3.62489,38.99353 -38.92162,38.99353 H 54.67374 c -35.29671,0 -38.92161,-3.625 -38.92161,-38.99353 V 128.24786 55.241389 c 0,-35.36853 3.6249,-38.99353 38.92161,-38.99353 z"
     id="rect4158-7"
     inkscape:connector-curvature="0"
     sodipodi:nodetypes="scccssscsss" />
  <path
     style="color:#000000;display:inline;overflow:visible;visibility:visible;opacity:0.2;fill:#000000;fill-opacity:1;fill-rule:nonzero;stroke:none;stroke-width:1;marker:none;filter:url(#filter58449);enable-background:accumulate"
     d="m 200.83049,16.247859 c 35.29673,0 39.09461,3.62542 38.92162,38.99353 v 73.006471 73.00648 c 0.17299,35.36812 -3.62489,38.99353 -38.92162,38.99353 H 54.67374 c -35.29671,0 -38.92161,-3.625 -38.92161,-38.99353 V 128.24786 55.241389 c 0,-35.36853 3.6249,-38.99353 38.92161,-38.99353 z"
     id="rect4158-1"
     inkscape:connector-curvature="0"
     sodipodi:nodetypes="scccssscsss" />
  <path
     style="color:#000000;display:inline;overflow:visible;visibility:visible;fill:#474fb7;fill-opacity:1;fill-rule:nonzero;stroke:none;stroke-width:1;marker:none;enable-background:accumulate"
     d="m 54.67915,239.24757 c -35.29673,0 -39.09461,-3.62542 -38.92162,-38.99353 V 127.24757 54.241093 c -0.17299,-35.36812 3.62489,-38.99353 38.92162,-38.99353 H 200.8359 c 35.29671,0 38.92161,3.625 38.92161,38.99353 v 73.006477 73.00647 c 0,35.36853 -3.6249,38.99353 -38.92161,38.99353 z"
     id="rect4158"
     inkscape:connector-curvature="0"
     sodipodi:nodetypes="scccssscsss" />
  <path
     style="color:#000000;display:inline;overflow:visible;visibility:visible;opacity:0.3;fill:#ffffff;fill-opacity:1;fill-rule:nonzero;stroke:none;stroke-width:1;marker:none;enable-background:accumulate"
     d="m 54.67941,15.247567 c -35.29673,0 -39.09487,3.62603 -38.92188,38.99414 v 2 c -0.17299,-35.36811 3.62515,-38.99414 38.92188,-38.99414 h 146.15623 c 35.29673,0 38.92188,3.62561 38.92188,38.99414 v -2 c 0,-35.36853 -3.62515,-38.99414 -38.92188,-38.99414 z"
     id="path931"
     inkscape:connector-curvature="0"
     sodipodi:nodetypes="sccsscsss" />
  <path
     style="color:#000000;display:inline;overflow:visible;visibility:visible;opacity:0.2;fill:#000000;fill-opacity:1;fill-rule:nonzero;stroke:none;stroke-width:1;marker:none;enable-background:accumulate"
     d="m 54.68481,239.24757 c -35.29674,0 -39.09488,-3.62603 -38.92189,-38.99414 v -2 c -0.17299,35.36811 3.62515,38.99414 38.92189,38.99414 h 146.15623 c 35.29673,0 38.92188,-3.62561 38.92188,-38.99414 v 2 c 0,35.36853 -3.62515,38.99414 -38.92188,38.99414 z"
     id="path931-8"
     inkscape:connector-curvature="0"
     sodipodi:nodetypes="sccsscsss" />
  <path
     d="M 176.87193,86.296166 H 139.5554 V 187.91087 H 115.78101 V 86.296166 H 78.637715 v -19.7119 h 98.234215 z"
     id="path1053"
     inkscape:connector-curvature="0"
     style="fill:#ffffff;stroke-width:0.19643384" />
</svg>
